src/svg/bug.svg

<?xml version="1.0" encoding="UTF-8" standalone="no"?>
<svg width="16px" height="16px" viewBox="0 0 16 16" version="1.1" xmlns="http://www.w3.org/2000/svg" xmlns:xlink="http://www.w3.org/1999/xlink">
    <!-- Generator: Sketch 3.7.1 (28215) - http://www.bohemiancoding.com/sketch -->
    <title>bug</title>
    <desc>Created with Sketch.</desc>
    <defs></defs>
    <g id="Octicons" stroke="none" stroke-width="1" fill="none" fill-rule="evenodd">
        <g id="bug" fill="#000000">
            <path d="M11,10 L14,10 L14,9 L11,9 L11,8 L14.17,6.97 L13.83,6.03 L11,7 L11,6 C11,5.45 10.55,5 9.99999998,5 L9.99999998,4 C9.99999998,3.52 9.63999998,3.12 9.16999998,3.03 L10.2,2 L12,2 L12,1 L9.79999998,1 L7.79999998,3 L7.20999998,3 L5.19999998,1 L2.99999998,1 L2.99999998,2 L4.79999998,2 L5.82999998,3.03 C5.35999998,3.12 4.99999998,3.51 4.99999998,4 L4.99999998,5 C4.44999998,5 3.99999998,5.45 3.99999998,6 L3.99999998,7 L1.16999998,6.03 L0.829999983,6.97 L3.99999998,8 L3.99999998,9 L0.999999983,9 L0.999999983,10 L3.99999998,10 L3.99999998,11 L0.829999983,12.03 L1.16999998,12.97 L3.99999998,12 L3.99999998,13 C3.99999998,13.55 4.44999998,14 4.99999998,14 L5.99999998,14 L6.99999998,13 L6.99999998,6 L7.99999998,6 L7.99999998,13 L8.99999998,14 L9.99999998,14 C10.55,14 11,13.55 11,13 L11,12 L13.83,12.97 L14.17,12.03 L11,11 L11,10 L11,10 Z M8.99999998,5 L5.99999998,5 L5.99999998,4 L8.99999998,4 L8.99999998,5 L8.99999998,5 Z" id="Shape"></path>
        </g>
    </g>
</svg>

<svg height="16" width="16" xmlns="http://www.w3.org/2000/svg" viewBox="0 0 16 16">
  <path d="M11 10h3v-1H11v-1l3.17-1.03-0.34-0.94-2.83 0.97v-1c0-0.55-0.45-1-1-1v-1c0-0.48-0.36-0.88-0.83-0.97l1.03-1.03h1.8V1H9.8L7.8 3h-0.59L5.2 1H3v1h1.8l1.03 1.03c-0.47 0.09-0.83 0.48-0.83 0.97v1c-0.55 0-1 0.45-1 1v1L1.17 6.03l-0.34 0.94 3.17 1.03v1H1v1h3v1L0.83 12.03l0.34 0.94 2.83-0.97v1c0 0.55 0.45 1 1 1h1l1-1V6h1v7l1 1h1c0.55 0 1-0.45 1-1v-1l2.83 0.97 0.34-0.94-3.17-1.03v-1zM9 5H6v-1h3v1z" />
</svg>
